app/assets/images/heroicons/micro/inbox-stack.svg

<svg width="16" height="16" viewBox="0 0 16 16" fill="none" xmlns="http://www.w3.org/2000/svg">
<path fill-rule="evenodd" clip-rule="evenodd" d="M2.74193 2.75518C3.16891 2.27483 3.78091 2 4.4236 2H11.5764C12.2191 2 12.8311 2.27483 13.2581 2.75518L14.4317 4.07548C14.7978 4.48735 15 5.01924 15 5.5703V6.25C15 7.49264 13.9926 8.5 12.75 8.5H3.25C2.00736 8.5 1 7.49264 1 6.25V5.5703C1 5.01924 1.20223 4.48735 1.56833 4.07548L2.74193 2.75518ZM4.4236 3.5C4.20937 3.5 4.00537 3.59161 3.86304 3.75173L2.75347 5H4.96482C5.29917 5 5.6114 5.1671 5.79687 5.4453L6.20313 6.0547C6.3886 6.3329 6.70083 6.5 7.03518 6.5H8.96482C9.29917 6.5 9.6114 6.3329 9.79687 6.0547L10.2031 5.4453C10.3886 5.1671 10.7008 5 11.0352 5H13.2465L12.137 3.75173C11.9946 3.59161 11.7906 3.5 11.5764 3.5H4.4236Z" fill="black"/>
<path d="M1 10.75C1 10.3358 1.33579 10 1.75 10H4.96482C5.29917 10 5.6114 10.1671 5.79687 10.4453L6.20313 11.0547C6.3886 11.3329 6.70083 11.5 7.03518 11.5H8.96482C9.29917 11.5 9.6114 11.3329 9.79687 11.0547L10.2031 10.4453C10.3886 10.1671 10.7008 10 11.0352 10H14.25C14.6642 10 15 10.3358 15 10.75V11.75C15 12.9926 13.9926 14 12.75 14H3.25C2.00736 14 1 12.9926 1 11.75V10.75Z" fill="black"/>
</svg>

<svg xmlns="http://www.w3.org/2000/svg" viewBox="0 0 16 16" fill="currentColor" aria-hidden="true" data-slot="icon">
  <path fill-rule="evenodd" d="M2.742 2.755A2.25 2.25 0 0 1 4.424 2h7.152a2.25 2.25 0 0 1 1.682.755l1.174 1.32c.366.412.568.944.568 1.495v.68a2.25 2.25 0 0 1-2.25 2.25h-9.5A2.25 2.25 0 0 1 1 6.25v-.68c0-.55.202-1.083.568-1.495l1.174-1.32Zm1.682.745a.75.75 0 0 0-.561.252L2.753 5h2.212a1 1 0 0 1 .832.445l.406.61a1 1 0 0 0 .832.445h1.93a1 1 0 0 0 .832-.445l.406-.61A1 1 0 0 1 11.035 5h2.211l-1.109-1.248a.75.75 0 0 0-.56-.252H4.423Z" clip-rule="evenodd"/>
  <path d="M1 10.75a.75.75 0 0 1 .75-.75h3.215a1 1 0 0 1 .832.445l.406.61a1 1 0 0 0 .832.445h1.93a1 1 0 0 0 .832-.445l.406-.61a1 1 0 0 1 .832-.445h3.215a.75.75 0 0 1 .75.75v1A2.25 2.25 0 0 1 12.75 14h-9.5A2.25 2.25 0 0 1 1 11.75v-1Z"/>
</svg>
